X:1
T: Inglewood
C:
R:Jig
Q:180
K:D
M:6/8
L:1/16
A2|f4f2 d4d2|B2c2d2 A4A2|f4f2 d2e2f2|g2f2g2 e2c2A2|f4f2 d4d2|B2c2d2 A4A2|B2c2d2 c2d2e2|d6d4A2|
f4f2 d4d2|B2c2d2 A4A2|f4f2 d2e2f2|g2f2g2 e2c2A2|f4f2 d4d2|B2c2d2 A4A2|B2c2d2 c2d2e2|d6d4cd|
e6c4A2|F4A2 d4A2|G2B2d2 A2d2f2|e2d2B2 A4cd|e6c4A2|F4A2 d4A2|G2B2d2 A2d2f2|e2f2e2 d4cd|
e6c4A2|F4A2 d4A2|G2B2d2 A2d2f2|e2f2^g2 a4a2|a6f4d2|B2c2d2 A4A2|B2c2d2 c2d2e2|d6d4||
